X: 15344
T: Gladstone, The
R: reel
M: 4/4
K: Gmajor
BGcA defg|G2 BG AFDc|BGcA defg|dBcA G3c|
BGcA defg|G2 BG AFDc|BGcA defg|dBcA G3d||
g3a fadg|e3g dGBd|cAdc BGcB|A3G FAdf|
geag fadg|e3g dgBd|cAdc Bdg2|dBcA G3c||

